X: 12054
T: Errigal McCreigh
R: waltz
M: 3/4
K: Eminor
Bd|e2 ef gf|e2 d2 (3D/>E/F/ (3G/A/B/|c4 BA|B4 Bd|
e2 ef g>f|ed BA GB|A2 G2 (E2|E4):|
|:EG|A2 Ac BA|A2 G2 AB|c4 BA|B4 Bd|e2 ef g>f|ed BA GB|A2 G2 (E2|E4):|

